_inc/systems/logos/atari5200.svg

<?xml version="1.0" encoding="utf-8"?>
<svg version="1.1" viewBox="0 0 264 57" xmlns="http://www.w3.org/2000/svg">
  <g transform="matrix(0.44, 0, 0, 0.44232, 0, 0)">
    <path id="path5" d="M 219.089 5.592 C 224.089 -0.804 234.436 -1.897 240.57 3.469 C 243.079 5.581 244.837 8.496 245.735 11.634 C 257.091 50.708 268.498 89.764 279.838 128.846 C 273.137 128.853 266.432 128.834 259.731 128.853 C 256.569 118.079 253.483 107.287 250.362 96.503 C 237.402 96.477 224.449 96.497 211.489 96.49 C 208.316 107.269 205.183 118.059 202.069 128.857 C 195.403 128.835 188.738 128.853 182.071 128.846 C 192.86 91.57 203.661 54.297 214.502 17.032 C 215.793 13.131 216.28 8.773 219.085 5.588 M 230.917 29.533 C 226.165 45.72 221.509 61.938 216.784 78.134 C 226.203 78.18 235.618 78.151 245.033 78.151 C 240.324 61.945 235.635 45.739 230.915 29.533 Z" style="fill: rgb(255, 255, 255);"/>
    <path id="path7" d="M 360.273 6.433 C 363.765 1.367 370.518 -1.091 376.46 0.474 C 381.903 1.727 386.066 6.416 387.503 11.696 C 398.848 50.742 410.233 89.774 421.577 128.824 C 414.865 128.876 408.157 128.824 401.447 128.85 C 398.326 118.068 395.24 107.274 392.095 96.49 C 379.157 96.497 366.222 96.468 353.286 96.501 C 350.193 107.291 347.003 118.056 343.912 128.847 C 337.252 128.854 330.598 128.841 323.938 128.854 C 334.72 91.373 345.63 53.926 356.5 16.467 C 357.654 13.078 358.098 9.349 360.289 6.426 M 358.659 78.148 C 368.039 78.161 377.414 78.154 386.794 78.154 C 382.127 61.913 377.384 45.695 372.734 29.456 C 368.056 45.689 363.325 61.907 358.668 78.148 Z" style="fill: rgb(255, 255, 255);"/>
    <path id="path9" d="M 264.841 0.278 L 337.57 0.278 L 337.57 19.892 C 328.641 19.899 319.72 19.882 310.797 19.899 C 310.797 56.214 310.804 92.53 310.793 128.845 L 291.612 128.845 C 291.612 92.532 291.607 56.216 291.618 19.899 C 282.69 19.882 273.768 19.899 264.84 19.892 C 264.84 13.349 264.83 6.815 264.84 0.273 Z" style="fill: rgb(255, 255, 255);"/>
    <path id="path11" d="M 442.888 1.076 C 444.729 0.439 446.696 0.222 448.641 0.267 C 456.285 0.294 463.931 0.274 471.573 0.278 C 484.447 0.516 496.733 8.502 502.305 20.089 C 506.162 27.613 506.559 36.363 505.588 44.617 C 504.915 53.258 501.292 61.898 494.651 67.626 C 491.143 70.751 486.773 72.647 483.017 75.431 C 480.954 77 480.851 80.051 481.918 82.234 C 492.063 97.897 502.609 113.315 512.967 128.843 C 505.392 128.856 497.816 128.826 490.239 128.856 C 480.324 113.961 470.509 98.99 460.632 84.074 C 457.728 79.828 456.938 74.206 458.678 69.361 C 460.034 65.644 463.282 62.926 466.9 61.523 C 473.805 58.887 480.615 54.749 484.439 48.231 C 487.349 43.334 487.198 37.292 485.89 31.932 C 484.354 24.975 477.576 19.501 470.411 19.74 C 465.456 19.773 460.506 19.718 455.559 19.762 C 453.319 19.71 451.213 21.658 451.241 23.926 C 451.217 58.901 451.252 93.878 451.231 128.852 C 444.787 128.839 438.353 128.852 431.909 128.845 C 431.897 91.193 431.922 53.539 431.897 15.888 C 431.939 9.294 436.628 3.084 442.882 1.081 Z" style="fill: rgb(255, 255, 255);"/>
    <path id="path13" d="M 523.1 0.278 L 543.432 0.278 C 543.426 43.137 543.445 85.989 543.419 128.846 C 536.65 128.827 529.876 128.846 523.1 128.84 L 523.1 0.282 Z" style="fill: rgb(255, 255, 255);"/>
    <path id="path15" d="M 57.334 0.015 C 60.589 0.005 63.846 0.015 67.102 0.007 C 67.115 7.663 67.102 15.32 67.107 22.974 C 67.141 29.366 66.96 35.755 66.695 42.138 C 66.259 51.357 65.682 60.594 64.155 69.709 C 63.106 75.991 60.933 82.051 58.237 87.805 C 53.838 97.076 46.927 104.92 39.158 111.518 C 32.208 117.634 23.912 122.087 15.187 125.101 C 10.251 126.799 5.172 128.111 0 128.84 C 0.005 122.42 0.005 115.995 0 109.575 C 6.226 108.64 12.211 106.43 17.771 103.51 C 24.367 100.023 30.306 95.33 35.303 89.802 C 40.465 84.092 44.579 77.481 47.701 70.462 C 51.378 62.392 53.345 53.676 54.683 44.947 C 56.359 33.853 57.058 22.628 57.317 11.414 C 57.354 7.622 57.322 3.82 57.334 0.023 Z" style="fill: rgb(255, 255, 255);"/>
    <path id="path17" d="M 71.032 0.028 C 77.025 -0.011 83.021 0.022 89.016 0.011 C 89.018 42.953 89.018 85.896 89.016 128.844 C 83.036 128.857 77.053 128.816 71.073 128.866 C 70.997 115.173 71.063 101.477 71.042 87.785 C 71.034 58.534 71.053 29.284 71.032 0.033 Z" style="fill: rgb(255, 255, 255);"/>
    <path id="path19" d="M 93.016 0.011 C 96.255 0.009 99.491 0.003 102.728 0.013 C 102.623 13.106 103.068 26.224 104.63 39.233 C 105.907 49.337 107.708 59.515 111.732 68.929 C 115.547 78.036 121.047 86.502 128.213 93.325 C 135.056 99.851 143.349 104.867 152.359 107.755 C 154.873 108.56 157.444 109.19 160.057 109.571 C 160.054 115.988 160.051 122.407 160.057 128.823 C 154.922 128.127 149.887 126.804 144.987 125.138 C 139.151 123.108 133.507 120.479 128.323 117.107 C 124.538 114.672 121.096 111.759 117.79 108.721 C 112.341 103.696 107.463 97.983 103.8 91.516 C 100.934 86.481 98.844 81.038 97.206 75.487 C 95.706 69.909 95.065 64.145 94.483 58.411 C 93.357 46.019 92.936 33.564 93.016 21.125 C 93.023 14.088 93.02 7.047 93.023 0.011 Z" style="fill: rgb(255, 255, 255);"/>
    <path id="path21" d="M 57.334 0.015 C 57.323 3.813 57.355 7.614 57.317 11.414 C 57.058 22.628 56.36 33.852 54.683 44.947 C 53.345 53.676 51.377 62.392 47.701 70.462 C 44.579 77.485 40.465 84.093 35.303 89.802 C 30.306 95.334 24.367 100.023 17.771 103.51 C 12.211 106.434 6.226 108.641 0 109.575 C 0.005 115.995 0.005 122.42 0 128.84 C 5.172 128.111 10.251 126.799 15.187 125.101 C 23.912 122.087 32.208 117.634 39.158 111.518 C 46.927 104.92 53.838 97.076 58.237 87.805 C 60.932 82.051 63.106 75.991 64.155 69.709 C 65.682 60.595 66.26 51.357 66.695 42.138 C 66.96 35.755 67.141 29.366 67.107 22.974 C 67.102 15.313 67.115 7.656 67.102 0 C 63.845 0.008 60.589 -0.003 57.334 0.008" style="fill: rgb(255, 255, 255);"/>
    <path id="path23" d="M 71.032 0.028 C 71.053 29.282 71.034 58.528 71.043 87.782 C 71.064 101.475 70.998 115.171 71.075 128.863 C 77.054 128.809 83.036 128.85 89.017 128.841 C 89.019 85.899 89.019 42.956 89.017 0.008 C 83.021 0.023 77.025 -0.011 71.032 0.029" style="fill: rgb(255, 255, 255);"/>
    <path id="path25" d="M 93.016 0.011 C 93.014 7.047 93.016 14.088 93.016 21.124 C 92.936 33.564 93.357 46.018 94.483 58.41 C 95.065 64.144 95.706 69.907 97.206 75.486 C 98.844 81.036 100.934 86.479 103.8 91.515 C 107.462 97.981 112.341 103.695 117.79 108.72 C 121.096 111.758 124.538 114.671 128.323 117.104 C 133.507 120.478 139.151 123.107 144.987 125.137 C 149.887 126.803 154.922 128.126 160.057 128.822 C 160.051 122.405 160.054 115.987 160.057 109.569 C 157.443 109.19 154.873 108.559 152.359 107.754 C 143.349 104.866 135.055 99.85 128.213 93.324 C 121.047 86.501 115.547 78.036 111.732 68.928 C 107.708 59.514 105.907 49.336 104.63 39.229 C 103.068 26.223 102.623 13.105 102.728 0.012 C 99.473 0.01 96.236 0.016 92.997 0.019" style="fill: rgb(255, 255, 255);"/>
    <path id="path27" d="M 566.683 116.108 L 574.232 118.396 L 574.085 115.815 C 574.085 108.706 580.173 104.03 586.94 104.03 C 594.685 104.03 599.991 110.068 599.991 117.617 C 599.991 122.148 597.606 126.678 593.563 128.819 L 590.349 125.408 C 593.465 124.289 595.803 120.539 595.803 117.277 C 595.803 112.311 591.713 108.414 586.793 108.414 C 582.069 108.414 578.076 112.452 578.076 117.176 C 578.076 119.757 579.293 122.437 581.34 124.042 L 581.34 124.921 L 562.492 119.271 L 562.492 104.578 L 566.68 104.578 L 566.68 116.121 L 566.69 116.121 Z" style="fill: rgb(255, 255, 255);"/>
    <path id="path29" d="M 595.026 79.834 L 599.211 79.834 L 599.211 103.55 L 579.487 87.477 C 577.639 85.968 575.349 84.216 572.913 84.216 C 569.066 84.216 565.902 87.625 565.902 91.422 C 565.902 95.174 568.922 98.241 572.622 98.485 L 572.622 103.062 C 566.097 102.332 561.712 98.095 561.712 91.422 C 561.712 85.189 566.338 79.834 572.719 79.834 C 575.445 79.834 578.171 80.858 580.268 82.558 L 595.022 94.636 L 595.022 79.834 L 595.033 79.834 Z" style="fill: rgb(255, 255, 255);"/>
    <path id="path31" d="M 561.709 59.773 C 561.709 70.289 570.332 78.842 580.93 78.842 C 591.446 78.842 600 70.289 600 59.773 C 600 48.951 591.591 40.475 580.854 40.475 C 570.117 40.475 561.709 48.951 561.709 59.773 Z M 580.939 44.983 C 589.234 44.983 595.731 51.58 595.731 60.006 C 595.731 67.906 589.096 74.333 580.939 74.333 C 572.698 74.333 565.992 67.906 565.992 60.006 C 565.981 51.443 572.416 44.983 580.936 44.983 Z" style="fill: rgb(255, 255, 255);"/>
    <path id="path33" d="M 561.709 19.305 C 561.709 29.821 570.332 38.374 580.93 38.374 C 591.446 38.374 600 29.821 600 19.305 C 600 8.484 591.596 0.007 580.865 0.007 C 570.133 0.007 561.709 8.484 561.709 19.305 Z M 580.939 4.516 C 589.234 4.516 595.731 11.113 595.731 19.539 C 595.731 27.439 589.096 33.868 580.939 33.868 C 572.698 33.868 565.992 27.439 565.992 19.539 C 565.981 10.973 572.416 4.516 580.936 4.516 Z" style="fill: rgb(255, 255, 255);"/>
  </g>
</svg>

<svg xmlns="http://www.w3.org/2000/svg" viewBox="0 0 264 57"><path d="M219.09 5.6c5-6.4 15.35-7.5 21.48-2.13a16.7 16.7 0 0 1 5.17 8.16c11.35 39.08 22.76 78.13 34.1 117.22q-10.05-.02-20.1 0c-3.17-10.77-6.26-21.56-9.38-32.35l-38.87-.01q-4.75 16.17-9.42 32.37c-6.67-.03-13.33 0-20-.01q16.18-55.92 32.43-111.82c1.3-3.9 1.78-8.26 4.59-11.44m11.83 23.94c-4.75 16.19-9.41 32.4-14.14 48.6 9.42.05 18.84.02 28.25.02l-14.12-48.62Zm129.35-23.1A15.35 15.35 0 0 1 376.46.47c5.44 1.26 9.6 5.95 11.04 11.23l34.08 117.12c-6.71.06-13.42 0-20.13.03-3.12-10.78-6.21-21.58-9.35-32.36q-19.41-.02-38.81.01c-3.1 10.8-6.29 21.56-9.38 32.35h-19.97c10.78-37.48 21.69-74.92 32.56-112.38 1.15-3.4 1.6-7.12 3.79-10.04m-1.63 71.72h28.13c-4.66-16.24-9.4-32.46-14.06-48.7-4.67 16.24-9.4 32.46-14.06 48.7ZM264.84.28h72.73v19.61H310.8v108.96h-19.2V19.9q-13.38-.02-26.77 0zm178.05.8c1.84-.64 3.8-.86 5.75-.81q11.48.02 22.93 0c12.88.25 25.16 8.23 30.74 19.82 3.85 7.52 4.25 16.27 3.28 24.53-.67 8.64-4.3 17.28-10.94 23-3.5 3.13-7.88 5.03-11.63 7.81-2.07 1.57-2.17 4.62-1.1 6.8 10.14 15.67 20.69 31.08 31.05 46.61-7.58.02-15.15-.01-22.73.02-9.92-14.9-19.73-29.87-29.6-44.79a16.6 16.6 0 0 1-1.96-14.7c1.35-3.73 4.6-6.44 8.22-7.85 6.9-2.63 13.72-6.77 17.54-13.29 2.9-4.9 2.76-10.94 1.45-16.3-1.54-6.95-8.31-12.43-15.48-12.19-4.95.03-9.9-.02-14.85.02-2.24-.05-4.35 1.9-4.32 4.17-.02 34.97.01 69.95 0 104.92H431.9l-.01-112.96c.04-6.6 4.73-12.8 10.98-14.8Zm80.21-.8h20.33q.02 64.28-.01 128.57l-20.32-.01zM57.33.02 67.1 0v22.96c.04 6.4-.14 12.79-.4 19.17-.44 9.22-1.02 18.45-2.55 27.57-1.04 6.28-3.22 12.34-5.91 18.1-4.4 9.27-11.31 17.11-19.08 23.7-6.95 6.12-15.25 10.58-23.97 13.6A82 82 0 0 1 0 128.83v-19.26a57 57 0 0 0 17.77-6.07A64 64 0 0 0 35.3 89.8a73 73 0 0 0 12.4-19.35c3.68-8.07 5.64-16.78 6.98-25.51 1.68-11.1 2.38-22.32 2.64-33.54.03-3.79 0-7.59.01-11.39Zm13.7.01c6-.04 12 0 17.99-.02v128.83c-5.98.02-11.97-.02-17.95.03-.07-13.7 0-27.4-.03-41.09zM93.02.01h9.7c-.1 13.1.35 26.21 1.91 39.22 1.28 10.1 3.08 20.29 7.1 29.7 3.82 9.1 9.32 17.57 16.48 24.4a63 63 0 0 0 24.15 14.42q3.77 1.23 7.7 1.82v19.25a81 81 0 0 1-15.07-3.68 77 77 0 0 1-16.67-8.03 79 79 0 0 1-10.53-8.39c-5.45-5.02-10.33-10.74-13.99-17.2a75 75 0 0 1-6.6-16.03c-1.5-5.58-2.14-11.34-2.72-17.08a385 385 0 0 1-1.46-37.28z" style="fill:#fff" transform="scale(.44 .44232)"/><path d="M57.33.02q.02 5.7-.01 11.4c-.26 11.2-.96 22.43-2.64 33.53-1.34 8.73-3.3 17.44-6.98 25.51A73 73 0 0 1 35.3 89.8a64 64 0 0 1-17.53 13.71A56 56 0 0 1 0 109.57v19.27a82 82 0 0 0 15.19-3.74c8.72-3.01 17.02-7.47 23.97-13.58 7.77-6.6 14.68-14.44 19.08-23.71 2.7-5.76 4.87-11.82 5.91-18.1 1.53-9.11 2.11-18.35 2.54-27.57.27-6.38.45-12.77.42-19.17V0h-9.78m13.7.03.01 87.75c.02 13.7-.04 27.4.03 41.08 5.98-.05 11.97-.01 17.95-.02V.01c-6 .01-12-.02-17.99.02M93.02.01v21.11c-.08 12.44.34 24.9 1.46 37.29.58 5.73 1.23 11.5 2.73 17.08a75 75 0 0 0 6.59 16.03c3.66 6.46 8.54 12.17 13.99 17.2a78 78 0 0 0 10.53 8.38c5.19 3.38 10.83 6 16.67 8.04a81 81 0 0 0 15.07 3.68v-19.25a48 48 0 0 1-7.7-1.82 63 63 0 0 1-24.15-14.43c-7.16-6.82-12.66-15.28-16.48-24.4-4.02-9.4-5.82-19.58-7.1-29.7-1.56-13-2-26.11-1.9-39.2H93M566.68 116.1l7.55 2.3-.14-2.59c0-7.1 6.08-11.78 12.85-11.78 7.74 0 13.05 6.04 13.05 13.59 0 4.53-2.38 9.06-6.43 11.2l-3.21-3.41c3.12-1.12 5.45-4.87 5.45-8.13a8.93 8.93 0 0 0-9-8.87 8.87 8.87 0 0 0-8.72 8.77 9 9 0 0 0 3.26 6.86v.88l-18.85-5.65v-14.7h4.19v11.55h.01Zm28.35-36.27h4.18v23.72L579.5 87.48c-1.85-1.51-4.14-3.26-6.58-3.26-3.84 0-7 3.4-7 7.2a7.17 7.17 0 0 0 6.71 7.06v4.58c-6.52-.73-10.9-4.97-10.9-11.64 0-6.23 4.62-11.59 11-11.59a12.2 12.2 0 0 1 7.55 2.73l14.75 12.08zM561.7 59.77a19.17 19.17 0 0 0 19.23 19.07A19.1 19.1 0 0 0 600 59.77c0-10.82-8.4-19.3-19.15-19.3-10.73 0-19.14 8.48-19.14 19.3m19.24-14.79c8.3 0 14.8 6.6 14.8 15.03 0 7.9-6.64 14.32-14.8 14.32-8.24 0-14.95-6.42-14.95-14.32 0-8.57 6.43-15.03 14.95-15.03M561.7 19.3a19.17 19.17 0 0 0 19.23 19.07A19.1 19.1 0 0 0 600 19.31C600 8.48 591.6 0 580.87 0a19.03 19.03 0 0 0-19.16 19.3m19.24-14.78c8.3 0 14.8 6.6 14.8 15.02 0 7.9-6.64 14.33-14.8 14.33-8.24 0-14.95-6.43-14.95-14.33 0-8.57 6.43-15.02 14.95-15.02" style="fill:#fff" transform="scale(.44 .44232)"/></svg>
